X:1
T:Quae fit magna Fides
T:Daniel Friderici
T:Source : Bicinia sacra---Rostock---J.Richelius---1642. Editor : André Vierendeels (02/07/17).
T:Notes : Original clefs : C1, C1 Editorial accidentals above the staff  
T:Quae fit magna Fides
T:©
T:©
T:©
C:Daniel Friderici
Z:©
%%score [ 1 2 ]
L:1/8
Q:1/4=120
M:2/2
K:F
V:1 treble nm="Soprano 1" snm="S 1"
V:2 treble nm="Soprano 2" snm="S 2"
V:1
 F8- | F4 G4 | A4 B4 | c6 BA | G4 F4 | G4 A4 | z4 G4 | A4 c4- | c2 =BA B4 | c4 c4- | c4 c4 | d8- | %12
w: Quae|_ fit|ma- gna|Fi- * *||* des,|Ca-|na- ae-||ae, Ca-|* na-|ae-|
 d4 e4 | f8 | e4 e4 | d8 | c4 C4- | C4 C4 | D8- | D4 E4 | F8 | E4 E4 | D8 |[M:2/4] C4 :: %24
w: * ae,|pin-|git i-|ma-|go, pin-|* git|i-||||ma-|go:|
[M:2/2] z2 c2 A3 A | G2 A4 c2 | d3 d c2 A2 | c3 c d2 c2- | c2 A2 B3 B | A2 c2 ABcA | B2 A2 F2 F2 | %31
w: Hanc sta- tu-|e an- te|o- cu- los, hanc|sta- tu- e an-|* te o- cu-|los cum da- * * *|* bis, o- ra|
 G2 F2 z2 c2 | B2 A2 z2 c2 | B2 A2 z2 c2 | B2 A2 G2 F2 | EDFE GFGA | GAGF EDEF | GFGE FGAF | %38
w: pre- ces, pre-|* ces, pre-|* ces cum|da- bis o- ra|pre- * * * * * * *|||
 G4 !fermata!F4 :| %39
w: * ces.|
V:2
 z8 | z8 | z8 | C8- | C4 D4 | E4 F4 | G6 FE | D4 C4 | D4 G4 | z4 F4- | F4 F4 | B8 | G4 cA c2 | %13
w: |||Quae|_ fit|ma- gna|Fi- * *||* des,|Ca-|* na-|ae-|ae pin- * *|
 BABc d2 cB | c4 A2 c2- | c2 =BA B4 | c2 c4 d2 | e6 e2 | f8- | f4 e4 | d4 c4- | c4 =B2 A2 | %22
w: |git i- ma-||go, Ca- na-|nae- ae|pin-|* git|i- ma-||
 =B2 c4 B2 |[M:2/4] c4 ::[M:2/2] z2 F2 c3 c | d2 c4 A2 | B3 B A2 c2 | A3 A G2 A2- | A2 c2 d3 d | %29
w: |go:|Hanc sta- tu-|e an- te|o- cu- los, hanc|sta- tu- e an-|* te o- cu-|
 c4 z4 | z2 c2 ABcA | B2 A2 F2 F2 | G2 Fc B2 A2 | z2 c2 B2 A2 | z2 c2 B2 A2 | G2 F2 EDEF | %36
w: los,|cum da- * * *|* bis o- ra|pre- ces, cum da- bis,|cum da- bis,|cum da- bis|o- ra pre- * * *|
 GFGA GAGF | EDEC DE F2- | FE/D/ E2 !fermata!F4 :| %39
w: ||* * * * ces.|

